X:1
T:Title
%%score { 1 | 2 }
L:1/8
Q:1/4=100
M:4/4
K:A
V:1 treble nm="Grand Piano"
V:2 bass 
V:1
 [Ec]2 [CE]2 [Ec]3 [Ec] | [Fd]>[Ec] [DB]>[Fd] [Ec]2 [CA]2 | B2 E2 B3 B | %3
w: Theo.~F.~Seward * * *|||
 [Ec]>[DB] [CA]>[DB] [Ec]2 [CA]2 | [Ec]2 [CE]2 [Ec]3 [Ec] | [Fd]>[Ec] [DB]>[Fd] [Ec]2 [EA]2 | %6
w: |||
 [EG]2 [Ge]2 [GB]3 [EG] | [^DB]>[DA] [DF]>[DG] E4 | B2 E2 B3 E | [CF]>[CE] C>[CE] [CA]4 | %10
w: ||||
 B2 E2 B3 E | [CF]>[CE] C>[CE] [CA]4 | [Ec]2 [CE]2 [Ec]3 [Ec] | [Fd]>[Ec] [DB]>[Fd] [Ec]2 [EA]2 | %14
w: ||||
 F2 B2 E3 A | G>d c>B [CA]4 |] %16
w: ||
V:2
 [A,,A,]2 [A,,A,]2 [A,,A,]3 [A,,A,] | [A,,A,]>[A,,A,] [A,,A,]>[A,,A,] [A,,A,]2 [A,,A,]2 | %2
 [E,G,D]2 [E,G,D]2 [E,G,D]3 [E,G,D] | [A,,A,]>[A,,A,] [A,,A,]>[A,,A,] [A,,A,]2 [A,,A,]2 | %4
 [A,,A,]2 [A,,A,]2 [A,,A,]3 [A,,A,] | [A,,A,]>[A,,A,] [A,,A,]>[A,,A,] [A,,A,]2 [C,A,]2 | %6
 [E,B,]2 [E,B,]2 [E,B,]3 [E,B,] | [B,,B,]>[B,,B,] [B,,A,]>[B,,B,] [E,G,]4 | %8
 [E,G,D]2 [E,G,D]2 [E,G,D]3 [E,G,D] | [A,,A,]>[A,,A,] [A,,A,]>[A,,A,] [A,,A,]4 | %10
 [E,G,D]2 [E,G,D]2 [E,G,D]3 [E,G,D] | [A,,A,]>[A,,A,] [A,,A,]>[A,,A,] [A,,A,]4 | %12
 [A,,A,]2 [A,,A,]2 [A,,A,]3 [A,,A,] | [A,,A,]>[A,,A,] [A,,A,]>[A,,A,] [A,,A,]2 [C,A,]2 | %14
 [D,A,D]2 [D,F,D]2 [E,A,C]3 [E,A,C] | [E,B,D]>[E,G,F] [E,G,E]>[E,G,D] [A,,A,]4 |] %16

